X:490
T:Morgan Magan
N:For the dance "Hillingdon Heath" by Charles Bolton
M:2/2
L:1/8
S:Colin Hume's website,  colinhume.com  - chords can also be printed below the stave.
Q:1/2=88
K:G
P:A
D | "G"D2G2 G2A2 | "C"cBAG "G"Bcd2 | "C"e2A2 "A"A2G2 | "D"GFED D2EF |\
"G"G4 "C"GFGA | "G"G2FE D3G | "D"FGA2 "A"A2EG | "D"F2D2 D2EF |
P:B
"G"G3G "D"AGAF | "G"G6 B2 | "C"c3B A2Bc | "G"d4 "C"e4 |\
"G"d2B2 "C"cBAG | "Am"AGFE "D"D2EF | "G"G3G "D"AGAF | "G"G4-G2dc ||
P:C
"G"B2d2 d2ef | "/"g2G2 Bcd2 | "/"g2G2 Bcd2 | "C"edcB "D"A3c |\
"G"BABc d2B2 | "C"e2c2 "G"d2B2 | "Am"c2A2 "G"d2G2 | "D"F2D2 D2GF |
P:D
"C"E2C2 C3D | "/"E2C2 C3E | "D"F2D2 D2AG | "/"FGEF D2Bc |\
"G"dBGB "C"edcB | "Am"cBAG "D"FGAF | "G"D2G2 "D"AGAF | "G"G4 |]

